img/vector/moveon-decstop.svg

<svg width="157" height="29" viewBox="0 0 157 29" fill="none" xmlns="http://www.w3.org/2000/svg">
<path d="M6.47225 11.664L4.74425 27H0.352253L3.80825 0.539999L14.1403 17.64L24.5083 0.539999L27.9643 27H23.5723L21.8443 11.664L14.1403 24.66L6.47225 11.664ZM30.6569 14.4C30.6569 12.528 30.9809 10.8 31.6289 9.216C32.2769 7.608 33.1889 6.228 34.3649 5.076C35.5649 3.9 36.9569 2.988 38.5409 2.34C40.1249 1.692 41.8529 1.368 43.7249 1.368C45.5969 1.368 47.3249 1.692 48.9089 2.34C50.5169 2.988 51.9089 3.9 53.0849 5.076C54.2849 6.228 55.2089 7.608 55.8569 9.216C56.5049 10.8 56.8289 12.528 56.8289 14.4C56.8289 16.272 56.5049 18.012 55.8569 19.62C55.2089 21.204 54.2969 22.596 53.1209 23.796C51.9449 24.972 50.5529 25.896 48.9449 26.568C47.3609 27.216 45.6209 27.54 43.7249 27.54C41.8289 27.54 40.0889 27.216 38.5049 26.568C36.9209 25.896 35.5409 24.972 34.3649 23.796C33.1889 22.596 32.2769 21.204 31.6289 19.62C30.9809 18.012 30.6569 16.272 30.6569 14.4ZM35.1569 14.4C35.1569 16.128 35.5169 17.676 36.2369 19.044C36.9809 20.388 38.0009 21.444 39.2969 22.212C40.5929 22.98 42.0689 23.364 43.7249 23.364C45.4049 23.364 46.8809 22.98 48.1529 22.212C49.4489 21.444 50.4569 20.388 51.1769 19.044C51.9209 17.676 52.2929 16.128 52.2929 14.4C52.2929 12.672 51.9329 11.136 51.2129 9.792C50.4929 8.424 49.4849 7.356 48.1889 6.588C46.9169 5.82 45.4289 5.436 43.7249 5.436C42.0689 5.436 40.5929 5.82 39.2969 6.588C38.0009 7.356 36.9809 8.424 36.2369 9.792C35.5169 11.136 35.1569 12.672 35.1569 14.4ZM69.4824 19.512L76.8984 1.8H81.7944L69.4824 28.404L57.1704 1.8H62.0664L69.4824 19.512ZM84.7258 1.8H100.062V5.544H88.9018V11.664H99.3418V15.336H88.9018V23.256H100.062V27H84.7258V1.8ZM103.852 14.4C103.852 12.528 104.176 10.8 104.824 9.216C105.472 7.608 106.384 6.228 107.56 5.076C108.76 3.9 110.152 2.988 111.736 2.34C113.32 1.692 115.048 1.368 116.92 1.368C118.792 1.368 120.52 1.692 122.104 2.34C123.712 2.988 125.104 3.9 126.28 5.076C127.48 6.228 128.404 7.608 129.052 9.216C129.7 10.8 130.024 12.528 130.024 14.4C130.024 16.272 129.7 18.012 129.052 19.62C128.404 21.204 127.492 22.596 126.316 23.796C125.14 24.972 123.748 25.896 122.14 26.568C120.556 27.216 118.816 27.54 116.92 27.54C115.024 27.54 113.284 27.216 111.7 26.568C110.116 25.896 108.736 24.972 107.56 23.796C106.384 22.596 105.472 21.204 104.824 19.62C104.176 18.012 103.852 16.272 103.852 14.4ZM108.352 14.4C108.352 16.128 108.712 17.676 109.432 19.044C110.176 20.388 111.196 21.444 112.492 22.212C113.788 22.98 115.264 23.364 116.92 23.364C118.6 23.364 120.076 22.98 121.348 22.212C122.644 21.444 123.652 20.388 124.372 19.044C125.116 17.676 125.488 16.128 125.488 14.4C125.488 12.672 125.128 11.136 124.408 9.792C123.688 8.424 122.68 7.356 121.384 6.588C120.112 5.82 118.624 5.436 116.92 5.436C115.264 5.436 113.788 5.82 112.492 6.588C111.196 7.356 110.176 8.424 109.432 9.792C108.712 11.136 108.352 12.672 108.352 14.4ZM152.552 1.8H156.728V28.26L138.332 10.08V27H134.156V0.539999L152.552 18.72V1.8Z" fill="white"/>
</svg>

<svg width="157" height="29" fill="none" xmlns="http://www.w3.org/2000/svg"><path d="M6.472 11.664 4.744 27H.352L3.808.54l10.332 17.1L24.508.54 27.964 27h-4.392l-1.728-15.336L14.14 24.66 6.472 11.664ZM30.657 14.4c0-1.872.324-3.6.972-5.184.648-1.608 1.56-2.988 2.736-4.14A12.863 12.863 0 0 1 38.54 2.34c1.584-.648 3.312-.972 5.184-.972 1.872 0 3.6.324 5.184.972 1.608.648 3 1.56 4.176 2.736 1.2 1.152 2.124 2.532 2.772 4.14.648 1.584.972 3.312.972 5.184 0 1.872-.324 3.612-.972 5.22a12.863 12.863 0 0 1-2.736 4.176c-1.176 1.176-2.568 2.1-4.176 2.772-1.584.648-3.324.972-5.22.972s-3.636-.324-5.22-.972a12.933 12.933 0 0 1-4.14-2.772 12.863 12.863 0 0 1-2.736-4.176c-.648-1.608-.972-3.348-.972-5.22Zm4.5 0c0 1.728.36 3.276 1.08 4.644a8.26 8.26 0 0 0 3.06 3.168c1.296.768 2.772 1.152 4.428 1.152 1.68 0 3.156-.384 4.428-1.152a8.004 8.004 0 0 0 3.024-3.168c.744-1.368 1.116-2.916 1.116-4.644 0-1.728-.36-3.264-1.08-4.608-.72-1.368-1.728-2.436-3.024-3.204-1.272-.768-2.76-1.152-4.464-1.152-1.656 0-3.132.384-4.428 1.152-1.296.768-2.316 1.836-3.06 3.204-.72 1.344-1.08 2.88-1.08 4.608Zm34.325 5.112L76.898 1.8h4.896L69.482 28.404 57.17 1.8h4.896l7.416 17.712ZM84.726 1.8h15.336v3.744h-11.16v6.12h10.44v3.672h-10.44v7.92h11.16V27H84.726V1.8Zm19.126 12.6c0-1.872.324-3.6.972-5.184.648-1.608 1.56-2.988 2.736-4.14a12.863 12.863 0 0 1 4.176-2.736c1.584-.648 3.312-.972 5.184-.972 1.872 0 3.6.324 5.184.972 1.608.648 3 1.56 4.176 2.736 1.2 1.152 2.124 2.532 2.772 4.14.648 1.584.972 3.312.972 5.184 0 1.872-.324 3.612-.972 5.22a12.863 12.863 0 0 1-2.736 4.176c-1.176 1.176-2.568 2.1-4.176 2.772-1.584.648-3.324.972-5.22.972s-3.636-.324-5.22-.972a12.933 12.933 0 0 1-4.14-2.772 12.863 12.863 0 0 1-2.736-4.176c-.648-1.608-.972-3.348-.972-5.22Zm4.5 0c0 1.728.36 3.276 1.08 4.644a8.26 8.26 0 0 0 3.06 3.168c1.296.768 2.772 1.152 4.428 1.152 1.68 0 3.156-.384 4.428-1.152a8.004 8.004 0 0 0 3.024-3.168c.744-1.368 1.116-2.916 1.116-4.644 0-1.728-.36-3.264-1.08-4.608-.72-1.368-1.728-2.436-3.024-3.204-1.272-.768-2.76-1.152-4.464-1.152-1.656 0-3.132.384-4.428 1.152-1.296.768-2.316 1.836-3.06 3.204-.72 1.344-1.08 2.88-1.08 4.608Zm44.2-12.6h4.176v26.46l-18.396-18.18V27h-4.176V.54l18.396 18.18V1.8Z" fill="#fff"/></svg>
